dist/img/favicon.svg

<svg width="50" height="50" viewBox="0 0 50 50" fill="none" xmlns="http://www.w3.org/2000/svg">
<!--<rect width="50" height="50" rx="25" fill="#FDF7F2"/>-->
<path d="M40 24.1675V25.8325C32.3203 26.0865 26.1343 32.2531 25.8525 39.9294C25.8525 39.9577 25.8525 39.9718 25.8525 40H24.1475C24.1475 39.9718 24.1475 39.9577 24.1475 39.9294C23.8516 32.2672 17.7078 26.1148 10.0705 25.8325C10.0423 25.8325 10.0282 25.8325 10 25.8325V24.1675C10.0282 24.1675 10.0423 24.1675 10.0705 24.1675C17.7219 23.8852 23.8657 17.7187 24.1475 10.0706C24.1475 10.0423 24.1475 10.0282 24.1475 10H25.8525C25.8525 10.0282 25.8525 10.0423 25.8525 10.0706C26.1343 17.7469 32.3203 23.9135 40 24.1675Z" fill="#1B1B1B"/>
</svg>

<svg xmlns="http://www.w3.org/2000/svg" fill="none" viewBox="0 0 50 50"><path fill="#1B1B1B" d="M40 24.168v1.665c-7.68.254-13.866 6.42-14.148 14.096V40h-1.704v-.07c-.296-7.663-6.44-13.815-14.078-14.098H10v-1.665h.07c7.652-.282 13.796-6.448 14.078-14.096V10h1.704v.07C26.134 17.748 32.32 23.914 40 24.169z"/></svg>
